svgs/sharp-regular/arrow-up-small-big.svg

<svg xmlns="http://www.w3.org/2000/svg" viewBox="0 0 576 512"><!--! Font Awesome Pro 6.6.0 by @fontawesome - https://fontawesome.com License - https://fontawesome.com/license (Commercial License) Copyright 2024 Fonticons, Inc. --><path d="M432 80l0 64-64 0 0-64 64 0zM368 32l-48 0 0 48 0 64 0 48 48 0 64 0 48 0 0-48 0-64 0-48-48 0-64 0zM160 33.3l-17 17-96 96-17 17L64 197.1l17-17 55-55L136 456l0 24 48 0 0-24 0-330.9 55 55 17 17 33.9-33.9-17-17-96-96-17-17zM368 432l0-128 128 0 0 128-128 0zM320 256l0 48 0 128 0 48 48 0 128 0 48 0 0-48 0-128 0-48-48 0-128 0-48 0z"/></svg>

<svg xmlns="http://www.w3.org/2000/svg" viewBox="0 0 576 512"><!--! Font Awesome Pro 6.4.0 by @fontawesome - https://fontawesome.com License - https://fontawesome.com/license (Commercial License) Copyright 2023 Fonticons, Inc. --><path d="M432 80v64H368V80h64zM368 32H320V80v64 48h48 64 48V144 80 32H432 368zM160 33.3l-17 17-96 96-17 17L64 197.1l17-17 55-55V456v24h48V456 125.1l55 55 17 17 33.9-33.9-17-17-96-96-17-17zM368 432V304H496V432H368zM320 256v48V432v48h48H496h48V432 304 256H496 368 320z"/></svg>
